Newaita-dark/apps/48/defold.svg

<svg height="48pt" viewBox="0 0 48 48" width="48pt" xmlns="http://www.w3.org/2000/svg" xmlns:xlink="http://www.w3.org/1999/xlink"><linearGradient id="a" gradientUnits="userSpaceOnUse" x1="23.81478" x2="23.81478" y1="42.0509045" y2="44.03547050005"><stop offset="0" stop-opacity=".27451"/><stop offset="1" stop-opacity="0"/></linearGradient><linearGradient id="b"><stop offset="0" stop-opacity=".313726"/><stop offset=".222222" stop-opacity=".27451"/><stop offset="1" stop-opacity="0"/></linearGradient><radialGradient id="c" cx="450.908936" cy="189.579361" gradientTransform="matrix(.00000026 -.117199 -.210958 -.00000015 67.777009 95.392999)" gradientUnits="userSpaceOnUse" r="21.166656" xlink:href="#b"/><radialGradient id="d" cx="450.908936" cy="189.579361" gradientTransform="matrix(-.00000026 .117199 .210958 .00000015 -20.147456 -11.291218)" gradientUnits="userSpaceOnUse" r="21.166656" xlink:href="#b"/><radialGradient id="e" cx="450.908936" cy="189.579361" gradientTransform="matrix(-.00000026 -.117199 .210958 -.00000015 -20.147456 95.392999)" gradientUnits="userSpaceOnUse" r="21.166656" xlink:href="#b"/><radialGradient id="f" cx="450.908936" cy="189.579361" gradientTransform="matrix(.00000026 .117199 -.210958 .00000015 67.777006 -11.291222)" gradientUnits="userSpaceOnUse" r="21.166656" xlink:href="#b"/><linearGradient id="g" gradientUnits="userSpaceOnUse" x1="29.7684825" x2="29.7684825" y1="4.3441580001" y2="42.0509015"><stop offset="0" stop-color="#448aff"/><stop offset="1" stop-color="#42a5f5"/></linearGradient><linearGradient id="h" gradientUnits="userSpaceOnUse" x1="23.814786" x2="23.814786" y1="42.0509005" y2="4.3441570001"><stop offset="0" stop-color="#ff7043"/><stop offset="1" stop-color="#ff8a65"/></linearGradient><path d="m19.347656 42.050781h8.933594v1.984375h-8.933594zm0 0" fill="url(#a)"/><path d="m28.28125 42.050781h3.96875v-1.984375h-3.96875zm0 0" fill="url(#c)"/><path d="m19.347656 42.050781h-3.96875v1.984375h3.96875zm0 0" fill="url(#d)"/><path d="m19.347656 42.050781h-3.96875v-1.984375h3.96875zm0 0" fill="url(#e)"/><path d="m28.28125 42.050781h3.96875v1.984375h-3.96875zm0 0" fill="url(#f)"/><path d="m7.394531 5.289062h32.792969c.820312 0 1.488281.667969 1.488281 1.488282v32.792968c0 .820313-.667969 1.488282-1.488281 1.488282h-32.792969c-.820312 0-1.488281-.667969-1.488281-1.488282v-32.792968c0-.820313.667969-1.488282 1.488281-1.488282zm0 0" fill="url(#g)"/><path d="m7.394531 41.105469c-.824219 0-1.488281-.664063-1.488281-1.488281v-.542969c0 .824219.664062 1.488281 1.488281 1.488281h32.792969c.824219 0 1.488281-.664062 1.488281-1.488281v.542969c0 .824218-.664062 1.488281-1.488281 1.488281zm0 0" fill-opacity=".235294"/><path d="m7.394531 5.148438c-.898437 0-1.628906.730468-1.628906 1.628906v32.792968c0 .898438.730469 1.628907 1.628906 1.628907h32.792969c.898438 0 1.628906-.730469 1.628906-1.628907v-32.792968c0-.898438-.730468-1.628906-1.628906-1.628906zm0 .28125h32.792969c.75 0 1.347656.601562 1.347656 1.347656v32.792968c0 .75-.597656 1.347657-1.347656 1.347657h-32.792969c-.746093 0-1.347656-.597657-1.347656-1.347657v-32.792968c0-.746094.601563-1.347656 1.347656-1.347656zm0 0" fill="#212121"/><path d="m7.394531 5.289062c-.824219 0-1.488281.664063-1.488281 1.488282v.542968c0-.824218.664062-1.488281 1.488281-1.488281h32.792969c.824219 0 1.488281.664063 1.488281 1.488281v-.542968c0-.824219-.664062-1.488282-1.488281-1.488282zm0 0" fill="#fff" fill-opacity=".392157"/><path d="m18.851562 4.34375c-1.097656 0-1.984374.886719-1.984374 1.984375v9.921875h-9.921876c-1.097656 0-1.984374.886719-1.984374 1.984375v9.925781c0 1.097656.886718 1.984375 1.984374 1.984375h9.921876v9.921875c0 1.097656.886718 1.984375 1.984374 1.984375h9.925782c1.097656 0 1.984375-.886719 1.984375-1.984375v-9.921875h9.921875c1.097656 0 1.984375-.886719 1.984375-1.984375v-9.925781c0-1.097656-.886719-1.984375-1.984375-1.984375h-9.921875v-9.921875c0-1.097656-.886719-1.984375-1.984375-1.984375zm0 0" fill="url(#h)"/><path d="m18.851562 4.34375c-1.097656 0-1.984374.886719-1.984374 1.984375v.496094c0-1.097657.886718-1.984375 1.984374-1.984375h9.925782c1.097656 0 1.984375.886718 1.984375 1.984375v-.496094c0-1.097656-.886719-1.984375-1.984375-1.984375zm-11.90625 11.90625c-1.097656 0-1.984374.886719-1.984374 1.984375v.496094c0-1.097657.886718-1.984375 1.984374-1.984375h9.921876v-.496094zm23.816407 0v.496094h9.921875c1.097656 0 1.984375.886718 1.984375 1.984375v-.496094c0-1.097656-.886719-1.984375-1.984375-1.984375zm0 0" fill="#fff" fill-opacity=".392157"/><path d="m18.851562 42.050781c-1.097656 0-1.984374-.886719-1.984374-1.984375v-.496094c0 1.097657.886718 1.984376 1.984374 1.984376h9.925782c1.097656 0 1.984375-.886719 1.984375-1.984376v.496094c0 1.097656-.886719 1.984375-1.984375 1.984375zm-11.90625-11.90625c-1.097656 0-1.984374-.886719-1.984374-1.984375v-.496094c0 1.097657.886718 1.984376 1.984374 1.984376h9.921876v.496093zm23.816407 0v-.496093h9.921875c1.097656 0 1.984375-.886719 1.984375-1.984376v.496094c0 1.097656-.886719 1.984375-1.984375 1.984375zm0 0" fill-opacity=".235294"/><path d="m759.927471 175.101398c-44.247746 0-79.992366 35.74462-79.992366 79.992365v399.961827h-399.961826c-44.247746 0-79.992366 35.74462-79.992366 79.992365v400.119292c0 44.247746 35.74462 79.992365 79.992366 79.992365h399.961826v399.961827c0 44.247745 35.74462 79.992365 79.992366 79.992365h400.119291c44.247746 0 79.992366-35.74462 79.992366-79.992365v-399.961827h399.961826c44.247746 0 79.992366-35.744619 79.992366-79.992365v-400.119292c0-44.247745-35.74462-79.992365-79.992366-79.992365h-399.961826v-399.961827c0-44.247745-35.74462-79.992365-79.992366-79.992365zm0 0" style="fill:none;stroke-width:11.338583;stroke-linecap:round;stroke-linejoin:round;stroke:#212121;stroke-opacity:.909804" transform="scale(.0248071)"/></svg>

<?xml version="1.0" encoding="UTF-8"?>
<svg xmlns="http://www.w3.org/2000/svg" xmlns:xlink="http://www.w3.org/1999/xlink" width="48pt" height="48pt" viewBox="0 0 48 48" version="1.1">
<defs>
<linearGradient id="linear0" gradientUnits="userSpaceOnUse" x1="254" y1="233.5" x2="254" y2="254.666672" gradientTransform="matrix(0.093759,0,0,0.093759,-0.00000572259,20.158178)">
<stop offset="0" style="stop-color:rgb(0%,0%,0%);stop-opacity:0.27451;"/>
<stop offset="1" style="stop-color:rgb(0%,0%,0%);stop-opacity:0;"/>
</linearGradient>
<radialGradient id="radial0" gradientUnits="userSpaceOnUse" cx="450.908936" cy="189.579361" fx="450.908936" fy="189.579361" r="21.166656" gradientTransform="matrix(0.000000261256,-0.117199,-0.210958,-0.000000152308,67.777009,95.392999)">
<stop offset="0" style="stop-color:rgb(0%,0%,0%);stop-opacity:0.313726;"/>
<stop offset="0.222222" style="stop-color:rgb(0%,0%,0%);stop-opacity:0.27451;"/>
<stop offset="1" style="stop-color:rgb(0%,0%,0%);stop-opacity:0;"/>
</radialGradient>
<radialGradient id="radial1" gradientUnits="userSpaceOnUse" cx="450.908936" cy="189.579361" fx="450.908936" fy="189.579361" r="21.166656" gradientTransform="matrix(-0.000000261256,0.117199,0.210958,0.000000152308,-20.147456,-11.291218)">
<stop offset="0" style="stop-color:rgb(0%,0%,0%);stop-opacity:0.313726;"/>
<stop offset="0.222222" style="stop-color:rgb(0%,0%,0%);stop-opacity:0.27451;"/>
<stop offset="1" style="stop-color:rgb(0%,0%,0%);stop-opacity:0;"/>
</radialGradient>
<radialGradient id="radial2" gradientUnits="userSpaceOnUse" cx="450.908936" cy="189.579361" fx="450.908936" fy="189.579361" r="21.166656" gradientTransform="matrix(-0.000000261256,-0.117199,0.210958,-0.000000152308,-20.147456,95.392999)">
<stop offset="0" style="stop-color:rgb(0%,0%,0%);stop-opacity:0.313726;"/>
<stop offset="0.222222" style="stop-color:rgb(0%,0%,0%);stop-opacity:0.27451;"/>
<stop offset="1" style="stop-color:rgb(0%,0%,0%);stop-opacity:0;"/>
</radialGradient>
<radialGradient id="radial3" gradientUnits="userSpaceOnUse" cx="450.908936" cy="189.579361" fx="450.908936" fy="189.579361" r="21.166656" gradientTransform="matrix(0.000000261256,0.117199,-0.210958,0.000000152308,67.777006,-11.291222)">
<stop offset="0" style="stop-color:rgb(0%,0%,0%);stop-opacity:0.313726;"/>
<stop offset="0.222222" style="stop-color:rgb(0%,0%,0%);stop-opacity:0.27451;"/>
<stop offset="1" style="stop-color:rgb(0%,0%,0%);stop-opacity:0;"/>
</radialGradient>
<linearGradient id="linear1" gradientUnits="userSpaceOnUse" x1="317.5" y1="-168.666656" x2="317.5" y2="233.5" gradientTransform="matrix(0.093759,0,0,0.093759,0,20.158175)">
<stop offset="0" style="stop-color:rgb(26.666668%,54.11765%,100%);stop-opacity:1;"/>
<stop offset="1" style="stop-color:rgb(25.882354%,64.705884%,96.078432%);stop-opacity:1;"/>
</linearGradient>
<linearGradient id="linear2" gradientUnits="userSpaceOnUse" x1="254" y1="233.5" x2="254" y2="-168.666656" gradientTransform="matrix(0.093759,0,0,0.093759,0,20.158174)">
<stop offset="0" style="stop-color:rgb(100%,43.921569%,26.274511%);stop-opacity:1;"/>
<stop offset="1" style="stop-color:rgb(100%,54.11765%,39.607844%);stop-opacity:1;"/>
</linearGradient>
</defs>
<g id="surface1">
<path style=" stroke:none;fill-rule:nonzero;fill:url(#linear0);" d="M 19.347656 42.050781 L 28.28125 42.050781 L 28.28125 44.035156 L 19.347656 44.035156 Z M 19.347656 42.050781 "/>
<path style=" stroke:none;fill-rule:nonzero;fill:url(#radial0);" d="M 28.28125 42.050781 L 32.25 42.050781 L 32.25 40.066406 L 28.28125 40.066406 Z M 28.28125 42.050781 "/>
<path style=" stroke:none;fill-rule:nonzero;fill:url(#radial1);" d="M 19.347656 42.050781 L 15.378906 42.050781 L 15.378906 44.035156 L 19.347656 44.035156 Z M 19.347656 42.050781 "/>
<path style=" stroke:none;fill-rule:nonzero;fill:url(#radial2);" d="M 19.347656 42.050781 L 15.378906 42.050781 L 15.378906 40.066406 L 19.347656 40.066406 Z M 19.347656 42.050781 "/>
<path style=" stroke:none;fill-rule:nonzero;fill:url(#radial3);" d="M 28.28125 42.050781 L 32.25 42.050781 L 32.25 44.035156 L 28.28125 44.035156 Z M 28.28125 42.050781 "/>
<path style=" stroke:none;fill-rule:nonzero;fill:url(#linear1);" d="M 7.394531 5.289062 L 40.1875 5.289062 C 41.007812 5.289062 41.675781 5.957031 41.675781 6.777344 L 41.675781 39.570312 C 41.675781 40.390625 41.007812 41.058594 40.1875 41.058594 L 7.394531 41.058594 C 6.574219 41.058594 5.90625 40.390625 5.90625 39.570312 L 5.90625 6.777344 C 5.90625 5.957031 6.574219 5.289062 7.394531 5.289062 Z M 7.394531 5.289062 "/>
<path style=" stroke:none;fill-rule:nonzero;fill:rgb(0%,0%,0%);fill-opacity:0.235294;" d="M 7.394531 41.105469 C 6.570312 41.105469 5.90625 40.441406 5.90625 39.617188 L 5.90625 39.074219 C 5.90625 39.898438 6.570312 40.5625 7.394531 40.5625 L 40.1875 40.5625 C 41.011719 40.5625 41.675781 39.898438 41.675781 39.074219 L 41.675781 39.617188 C 41.675781 40.441406 41.011719 41.105469 40.1875 41.105469 Z M 7.394531 41.105469 "/>
<path style=" stroke:none;fill-rule:nonzero;fill:rgb(12.941177%,12.941177%,12.941177%);fill-opacity:1;" d="M 7.394531 5.148438 C 6.496094 5.148438 5.765625 5.878906 5.765625 6.777344 L 5.765625 39.570312 C 5.765625 40.46875 6.496094 41.199219 7.394531 41.199219 L 40.1875 41.199219 C 41.085938 41.199219 41.816406 40.46875 41.816406 39.570312 L 41.816406 6.777344 C 41.816406 5.878906 41.085938 5.148438 40.1875 5.148438 Z M 7.394531 5.429688 L 40.1875 5.429688 C 40.9375 5.429688 41.535156 6.03125 41.535156 6.777344 L 41.535156 39.570312 C 41.535156 40.320312 40.9375 40.917969 40.1875 40.917969 L 7.394531 40.917969 C 6.648438 40.917969 6.046875 40.320312 6.046875 39.570312 L 6.046875 6.777344 C 6.046875 6.03125 6.648438 5.429688 7.394531 5.429688 Z M 7.394531 5.429688 "/>
<path style=" stroke:none;fill-rule:nonzero;fill:rgb(100%,100%,100%);fill-opacity:0.392157;" d="M 7.394531 5.289062 C 6.570312 5.289062 5.90625 5.953125 5.90625 6.777344 L 5.90625 7.320312 C 5.90625 6.496094 6.570312 5.832031 7.394531 5.832031 L 40.1875 5.832031 C 41.011719 5.832031 41.675781 6.496094 41.675781 7.320312 L 41.675781 6.777344 C 41.675781 5.953125 41.011719 5.289062 40.1875 5.289062 Z M 7.394531 5.289062 "/>
<path style=" stroke:none;fill-rule:nonzero;fill:url(#linear2);" d="M 18.851562 4.34375 C 17.753906 4.34375 16.867188 5.230469 16.867188 6.328125 L 16.867188 16.25 L 6.945312 16.25 C 5.847656 16.25 4.960938 17.136719 4.960938 18.234375 L 4.960938 28.160156 C 4.960938 29.257812 5.847656 30.144531 6.945312 30.144531 L 16.867188 30.144531 L 16.867188 40.066406 C 16.867188 41.164062 17.753906 42.050781 18.851562 42.050781 L 28.777344 42.050781 C 29.875 42.050781 30.761719 41.164062 30.761719 40.066406 L 30.761719 30.144531 L 40.683594 30.144531 C 41.78125 30.144531 42.667969 29.257812 42.667969 28.160156 L 42.667969 18.234375 C 42.667969 17.136719 41.78125 16.25 40.683594 16.25 L 30.761719 16.25 L 30.761719 6.328125 C 30.761719 5.230469 29.875 4.34375 28.777344 4.34375 Z M 18.851562 4.34375 "/>
<path style=" stroke:none;fill-rule:nonzero;fill:rgb(100%,100%,100%);fill-opacity:0.392157;" d="M 18.851562 4.34375 C 17.753906 4.34375 16.867188 5.230469 16.867188 6.328125 L 16.867188 6.824219 C 16.867188 5.726562 17.753906 4.839844 18.851562 4.839844 L 28.777344 4.839844 C 29.875 4.839844 30.761719 5.726562 30.761719 6.824219 L 30.761719 6.328125 C 30.761719 5.230469 29.875 4.34375 28.777344 4.34375 Z M 6.945312 16.25 C 5.847656 16.25 4.960938 17.136719 4.960938 18.234375 L 4.960938 18.730469 C 4.960938 17.632812 5.847656 16.746094 6.945312 16.746094 L 16.867188 16.746094 L 16.867188 16.25 Z M 30.761719 16.25 L 30.761719 16.746094 L 40.683594 16.746094 C 41.78125 16.746094 42.667969 17.632812 42.667969 18.730469 L 42.667969 18.234375 C 42.667969 17.136719 41.78125 16.25 40.683594 16.25 Z M 30.761719 16.25 "/>
<path style=" stroke:none;fill-rule:nonzero;fill:rgb(0%,0%,0%);fill-opacity:0.235294;" d="M 18.851562 42.050781 C 17.753906 42.050781 16.867188 41.164062 16.867188 40.066406 L 16.867188 39.570312 C 16.867188 40.667969 17.753906 41.554688 18.851562 41.554688 L 28.777344 41.554688 C 29.875 41.554688 30.761719 40.667969 30.761719 39.570312 L 30.761719 40.066406 C 30.761719 41.164062 29.875 42.050781 28.777344 42.050781 Z M 6.945312 30.144531 C 5.847656 30.144531 4.960938 29.257812 4.960938 28.160156 L 4.960938 27.664062 C 4.960938 28.761719 5.847656 29.648438 6.945312 29.648438 L 16.867188 29.648438 L 16.867188 30.144531 Z M 30.761719 30.144531 L 30.761719 29.648438 L 40.683594 29.648438 C 41.78125 29.648438 42.667969 28.761719 42.667969 27.664062 L 42.667969 28.160156 C 42.667969 29.257812 41.78125 30.144531 40.683594 30.144531 Z M 30.761719 30.144531 "/>
<path style="fill:none;stroke-width:11.338583;stroke-linecap:round;stroke-linejoin:round;stroke:rgb(12.941177%,12.941177%,12.941177%);stroke-opacity:0.909804;stroke-miterlimit:4;" d="M 759.927471 175.101398 C 715.679725 175.101398 679.935105 210.846018 679.935105 255.093763 L 679.935105 655.05559 L 279.973279 655.05559 C 235.725533 655.05559 199.980913 690.80021 199.980913 735.047955 L 199.980913 1135.167247 C 199.980913 1179.414993 235.725533 1215.159612 279.973279 1215.159612 L 679.935105 1215.159612 L 679.935105 1615.121439 C 679.935105 1659.369184 715.679725 1695.113804 759.927471 1695.113804 L 1160.046762 1695.113804 C 1204.294508 1695.113804 1240.039128 1659.369184 1240.039128 1615.121439 L 1240.039128 1215.159612 L 1640.000954 1215.159612 C 1684.2487 1215.159612 1719.99332 1179.414993 1719.99332 1135.167247 L 1719.99332 735.047955 C 1719.99332 690.80021 1684.2487 655.05559 1640.000954 655.05559 L 1240.039128 655.05559 L 1240.039128 255.093763 C 1240.039128 210.846018 1204.294508 175.101398 1160.046762 175.101398 Z M 759.927471 175.101398 " transform="matrix(0.0248071,0,0,0.0248071,0,0)"/>
</g>
</svg>
